X:17639
T:Tonada (CT 312)
R:Tonada
C:Tradicional
S:Música Tradicional Asturiana, (C) Tello & Tito. Asturies, 2001.
S:http://pagina.de/MusTradAst <telloytito@asturies.org>
N:Canción de empleo indeterminado, dictada por Leandra González Zuazua, de cincuenta años, d'Uviéu, quien dice las aprendió en Lluanco.
N:Suele cantarse con acompañamiento de gaita.
O:Lluanco
A:Asturies
Z:Cancioneru de Torner 312
M:3/4
L:1/8
Q:1/4=112
W:Esta noche atapeciendo,
W:sal al pie la saltaera,
W:que te tengo que falar
W:un recadín a la oreya.
W:
W:Yo nun caleyo de noche,
W:nin falo a soles con naide;
W:si ties que me decir
W:dilo delantre mio padre.
W:
W:El fíu Xuana La Coxa,
W:la otra noche na foguera,
W:bien t'echaba la presona:
W:voi fundíi la mollera.
W:
W:Ye verdá que na foguera
W:vieno conmigo a falar,
W:pero nun delguna cosa
W:qu'a tí te pueda importar.
W:
W:Si a min nun m'importa ná
W:que fales con otru, morena,
W:¿pa qué me disti rilaciones
W:debaxo la carbayera?
W:
W:Ye verdá que te les dí
W:fai aboundu tiempu ya,
W:y nun trates de casate:
W:róñeme muncho mio pa.
W:
W:Si nun trato de casame,
W:ye porque nun me convienes,
W:porque to pa lleva en renta
W:la casería y los bienes.
W:
W:Pos busca otra buena moza
W:que lo lleve too de suyo,
W:qu'a mio pa nun ha faltái
W:quien-y mazque isti coguyu,
W:
W:Debaxo de la to ventana,
W:tres arbolinos planté:
W:un desmayu y un olivu
W:y un naranxalín al pie.
W:
W:El desmayu, que m'allargo,
W:l'olivu, que t'olvido,
W:y el naranxal, que me pesa
W:el tiempu qu'eché contigo.
K:G
|:G3/2A/2 Bc d3/2c/2|dB G2 d2|=f_e d2 c2|d(c/2d/4c/4 B4)|
G3/2A/2 Bc d3/2c/2|(dB) G2 c2|
[M:2/4]
BA GF|
[M:3/4]
B (A/2B/4A/4 G2) z2:||


